src/assets/images/custom2.svg

<svg width="81" height="82" viewBox="0 0 81 82" fill="none" xmlns="http://www.w3.org/2000/svg">
<g filter="url(#filter0_d_515_1688)">
<rect x="4" y="3" width="73" height="73" rx="18" fill="#FFC36A"/>
</g>
<g clip-path="url(#clip0_515_1688)">
<path d="M41 46.125C39.5908 46.125 38.2133 45.7071 37.0416 44.9242C35.8699 44.1413 34.9566 43.0285 34.4174 41.7266C33.8781 40.4247 33.737 38.9921 34.0119 37.61C34.2868 36.2279 34.9654 34.9583 35.9619 33.9619C36.9583 32.9654 38.2279 32.2868 39.61 32.0119C40.9921 31.737 42.4247 31.8781 43.7266 32.4174C45.0285 32.9566 46.1413 33.8699 46.9242 35.0416C47.7071 36.2133 48.125 37.5908 48.125 39C48.1352 39.9385 47.9578 40.8696 47.6034 41.7386C47.2489 42.6077 46.7245 43.3972 46.0608 44.0608C45.3972 44.7245 44.6077 45.2489 43.7386 45.6034C42.8696 45.9578 41.9385 46.1352 41 46.125ZM41 34.25C40.3723 34.2357 39.7482 34.3488 39.1655 34.5825C38.5827 34.8161 38.0534 35.1655 37.6094 35.6094C37.1655 36.0534 36.8161 36.5827 36.5825 37.1655C36.3488 37.7482 36.2357 38.3723 36.25 39C36.2357 39.6277 36.3488 40.2518 36.5825 40.8345C36.8161 41.4173 37.1655 41.9466 37.6094 42.3906C38.0534 42.8345 38.5827 43.1839 39.1655 43.4175C39.7482 43.6512 40.3723 43.7643 41 43.75C41.6277 43.7643 42.2518 43.6512 42.8345 43.4175C43.4173 43.1839 43.9466 42.8345 44.3906 42.3906C44.8345 41.9466 45.1839 41.4173 45.4175 40.8345C45.6512 40.2518 45.7643 39.6277 45.75 39C45.7643 38.3723 45.6512 37.7482 45.4175 37.1655C45.1839 36.5827 44.8345 36.0534 44.3906 35.6094C43.9466 35.1655 43.4173 34.8161 42.8345 34.5825C42.2518 34.3488 41.6277 34.2357 41 34.25Z" fill="white"/>
<path d="M56.7998 33.1147L53.9973 28.2602C53.723 27.7843 53.292 27.4183 52.7779 27.2246C52.2637 27.031 51.6984 27.0218 51.1782 27.1986L48.2878 28.1759C47.7897 27.8406 47.2692 27.5398 46.7298 27.2758L46.1325 24.2845C46.0249 23.7459 45.7339 23.2613 45.309 22.9131C44.8842 22.5649 44.3519 22.3748 43.8026 22.375H38.1976C37.6484 22.3748 37.116 22.5649 36.6912 22.9131C36.2664 23.2613 35.9754 23.7459 35.8678 24.2845L35.2705 27.2758C34.7251 27.5369 34.1985 27.8357 33.6946 28.17L30.8209 27.1986C30.3011 27.0225 29.7362 27.032 29.2226 27.2256C28.709 27.4191 28.2784 27.7848 28.0041 28.2602L25.2016 33.1147C24.9268 33.5902 24.8252 34.1462 24.9142 34.6882C25.0032 35.2301 25.2772 35.7245 25.6897 36.0871L27.9828 38.1011C27.9626 38.4003 27.9376 38.6972 27.9376 39C27.9376 39.3064 27.9495 39.6092 27.9709 39.9096L25.6909 41.9141C25.2783 42.2764 25.004 42.7703 24.9146 43.312C24.8252 43.8537 24.9262 44.4096 25.2005 44.8853L28.003 49.7397C28.2771 50.2159 28.708 50.5822 29.2222 50.776C29.7363 50.9699 30.3018 50.9792 30.8221 50.8026L33.7125 49.8241C34.2104 50.16 34.731 50.4612 35.2705 50.7254L35.8678 53.7155C35.9754 54.2541 36.2664 54.7387 36.6912 55.0869C37.116 55.4351 37.6484 55.6252 38.1976 55.625H43.3751V53.25H38.1976L37.3545 49.0344C36.1882 48.6011 35.1055 47.9696 34.1542 47.1676L30.0609 48.5522L27.2584 43.6978L30.4943 40.8537C30.2729 39.6257 30.2701 38.3682 30.486 37.1392L27.2584 34.3022L30.0609 29.4477L34.1305 30.8253C35.0885 30.0222 36.1796 29.3928 37.3545 28.9656L38.1976 24.75H43.8026L44.6458 28.9656C45.8121 29.399 46.8948 30.0305 47.8461 30.8324L51.9394 29.4477L54.7419 34.3022L51.4193 37.214L52.9844 39L56.3094 36.0859C56.722 35.7236 56.9963 35.2297 57.0857 34.688C57.1751 34.1463 57.0741 33.5904 56.7998 33.1147Z" fill="white"/>
<path d="M49.3125 51.0883L46.2369 48.0127L44.5625 49.6871L49.3125 54.4371L57.625 46.1246L55.9506 44.4502L49.3125 51.0883Z" fill="white"/>
</g>
<defs>
<filter id="filter0_d_515_1688" x="0" y="0.5" width="81" height="81" filterUnits="userSpaceOnUse" color-interpolation-filters="sRGB">
<feFlood flood-opacity="0" result="BackgroundImageFix"/>
<feColorMatrix in="SourceAlpha" type="matrix" values="0 0 0 0 0 0 0 0 0 0 0 0 0 0 0 0 0 0 127 0" result="hardAlpha"/>
<feOffset dy="1.5"/>
<feGaussianBlur stdDeviation="2"/>
<feComposite in2="hardAlpha" operator="out"/>
<feColorMatrix type="matrix" values="0 0 0 0 0.360784 0 0 0 0 0.768627 0 0 0 0 0.658824 0 0 0 0.21 0"/>
<feBlend mode="normal" in2="BackgroundImageFix" result="effect1_dropShadow_515_1688"/>
<feBlend mode="normal" in="SourceGraphic" in2="effect1_dropShadow_515_1688" result="shape"/>
</filter>
<clipPath id="clip0_515_1688">
<rect width="38" height="38" fill="white" transform="translate(22 20)"/>
</clipPath>
</defs>
</svg>

<svg xmlns="http://www.w3.org/2000/svg" width="81" height="82" fill="none"><g filter="url(#a)"><rect width="73" height="73" x="4" y="3" fill="#FFC36A" rx="18"/></g><g fill="#fff" clip-path="url(#b)"><path d="M41 46.125A7.125 7.125 0 1 1 48.125 39 7.05 7.05 0 0 1 41 46.125m0-11.875A4.644 4.644 0 0 0 36.25 39 4.644 4.644 0 0 0 41 43.75 4.644 4.644 0 0 0 45.75 39 4.644 4.644 0 0 0 41 34.25"/><path d="m56.8 33.115-2.803-4.855a2.37 2.37 0 0 0-2.819-1.061l-2.89.977a13 13 0 0 0-1.558-.9l-.597-2.991a2.374 2.374 0 0 0-2.33-1.91h-5.605a2.375 2.375 0 0 0-2.33 1.91l-.598 2.99q-.819.393-1.575.895l-2.874-.971a2.37 2.37 0 0 0-2.817 1.061l-2.802 4.855a2.375 2.375 0 0 0 .488 2.972l2.293 2.014c-.02.3-.045.596-.045.899q0 .46.033.91l-2.28 2.004a2.375 2.375 0 0 0-.49 2.971l2.802 4.855a2.37 2.37 0 0 0 2.82 1.063l2.89-.979q.747.505 1.557.901l.598 2.99a2.375 2.375 0 0 0 2.33 1.91h5.177V53.25h-5.177l-.843-4.216a10.8 10.8 0 0 1-3.2-1.866l-4.094 1.384-2.803-4.854 3.236-2.844a10.6 10.6 0 0 1-.008-3.715l-3.228-2.837 2.803-4.854 4.07 1.377a10.7 10.7 0 0 1 3.224-1.86l.843-4.215h5.605l.843 4.216a10.8 10.8 0 0 1 3.2 1.866l4.093-1.384 2.803 4.854-3.323 2.912L52.984 39l3.325-2.914a2.375 2.375 0 0 0 .49-2.971"/><path d="m49.313 51.088-3.076-3.075-1.675 1.674 4.75 4.75 8.313-8.312-1.674-1.675z"/></g><defs><clipPath id="b"><path fill="#fff" d="M22 20h38v38H22z"/></clipPath><filter id="a" width="81" height="81" x="0" y=".5" color-interpolation-filters="sRGB" filterUnits="userSpaceOnUse"><feFlood flood-opacity="0" result="BackgroundImageFix"/><feColorMatrix in="SourceAlpha" result="hardAlpha" values="0 0 0 0 0 0 0 0 0 0 0 0 0 0 0 0 0 0 127 0"/><feOffset dy="1.5"/><feGaussianBlur stdDeviation="2"/><feComposite in2="hardAlpha" operator="out"/><feColorMatrix values="0 0 0 0 0.360784 0 0 0 0 0.768627 0 0 0 0 0.658824 0 0 0 0.21 0"/><feBlend in2="BackgroundImageFix" result="effect1_dropShadow_515_1688"/><feBlend in="SourceGraphic" in2="effect1_dropShadow_515_1688" result="shape"/></filter></defs></svg>
